src/images/LAD.svg

<svg id="e1jSGKLZUMe1" xmlns="http://www.w3.org/2000/svg" xmlns:xlink="http://www.w3.org/1999/xlink" viewBox="0 0 550 550" shape-rendering="geometricPrecision" text-rendering="geometricPrecision"><rect width="502" height="502" rx="0" ry="0" transform="translate(24 24)" fill="none" fill-rule="evenodd"/><path d="M108,456l38.88359-.68302l16.78219-77.89009L70,378v-43h37v-292h-34.922775L71.5,0.998073L189,1v42h-38v290h22.8449l49.92168-207.5l67.9592-.33898L341.55809,332.5h24.94191l.52526-71.5h47.94315L415.5,378.00036L353,378l17.62554,77.5L408,456.04413L408,501h-123v-45h38.23326l-17.87074-77.5-95.06906-.51921-17.95924,78.00278L230,456v45h-122v-45ZM294.23824,332.42843L257.96564,176L221,332.45552c0,.7294,72.50857.70258,73.23824-.02709Z" transform="translate(24 24)" fill="#005a9c"/></svg>

<?xml version="1.0" encoding="UTF-8" standalone="no"?>
<!-- Created with Inkscape (http://www.inkscape.org/) -->
<svg
   xmlns:dc="http://purl.org/dc/elements/1.1/"
   xmlns:cc="http://web.resource.org/cc/"
   xmlns:rdf="http://www.w3.org/1999/02/22-rdf-syntax-ns#"
   xmlns:svg="http://www.w3.org/2000/svg"
   xmlns="http://www.w3.org/2000/svg"
   xmlns:sodipodi="http://sodipodi.sourceforge.net/DTD/sodipodi-0.dtd"
   xmlns:inkscape="http://www.inkscape.org/namespaces/inkscape"
   id="svg2"
   sodipodi:version="0.32"
   inkscape:version="0.45.1"
   width="502"
   height="502"
   version="1.0"
   sodipodi:docbase="C:\Wiki Uploads\To Upload"
   sodipodi:docname="LA_Dodgers.svg"
   inkscape:output_extension="org.inkscape.output.svg.inkscape">
  <metadata
     id="metadata7">
    <rdf:RDF>
      <cc:Work
         rdf:about="">
        <dc:format>image/svg+xml</dc:format>
        <dc:type
           rdf:resource="http://purl.org/dc/dcmitype/StillImage" />
      </cc:Work>
    </rdf:RDF>
  </metadata>
  <defs
     id="defs5" />
  <sodipodi:namedview
     inkscape:window-height="573"
     inkscape:window-width="744"
     inkscape:pageshadow="2"
     inkscape:pageopacity="0.0"
     guidetolerance="10.0"
     gridtolerance="10.0"
     objecttolerance="10.0"
     borderopacity="1.0"
     bordercolor="none"
     pagecolor="#005A9C"
     id="base"
     inkscape:zoom="0.75099602"
     inkscape:cx="251"
     inkscape:cy="251"
     inkscape:window-x="110"
     inkscape:window-y="145"
     inkscape:current-layer="svg2" />
  <rect
     style="fill:none;fill-opacity:1;fill-rule:evenodd;stroke:none;stroke-width:1px;stroke-linecap:butt;stroke-linejoin:miter;stroke-opacity:1"
     id="rect2157"
     width="502"
     height="502"
     x="0"
     y="0" />
  <path
     style="fill:#005A9C"
     d="M 108,456 L 146.88359,455.31698 L 163.66578,377.42689 L 70,378 L 70,335 L 107,335 L 107,43 L 72.077225,43 L 71.5,0.99807276 L 189,1 L 189,43 L 151,43 L 151,333 L 173.8449,333 L 223.76658,125.5 L 291.72578,125.16102 L 341.55809,332.5 L 366.5,332.5 L 367.02526,261 L 414.96841,261 L 415.5,378.00036 L 353,378 L 370.62554,455.5 L 408,456.04413 L 408,501 L 285,501 L 285,456 L 323.23326,456 L 305.36252,378.5 L 210.29346,377.98079 L 192.33422,455.98357 L 230,456 L 230,501 L 108,501 L 108,456 z M 294.23824,332.42843 L 257.96564,176 L 221,332.45552 C 221,333.18492 293.50857,333.1581 294.23824,332.42843 z "
     id="path2161"
     sodipodi:nodetypes="ccccccccccccccccccccccccccccccccccccccc" />
</svg>
